X:1
T:Kleiner und leichter Messgesang
T:J. Rheinberger op. 62
T:Missa Puerorum
T:Kleiner und leichter Messgesang
T:Manfred Hößl - mhoessl.de
T:Manfred Hößl - mhoessl.de
T:Manfred Hößl - mhoessl.de
T:Manfred Hößl - mhoessl.de
T:Manfred Hößl - mhoessl.de
T:Manfred Hößl - mhoessl.de
T:Manfred Hößl - mhoessl.de
T:Manfred Hößl - mhoessl.de
T:Manfred Hößl - mhoessl.de
T:Manfred Hößl - mhoessl.de
T:Manfred Hößl - mhoessl.de
T:Manfred Hößl - mhoessl.de
T:Manfred Hößl - mhoessl.de
T:Manfred Hößl - mhoessl.de
T:Manfred Hößl - mhoessl.de
C:J. Rheinberger op. 62
Z:Manfred Hößl - mhoessl.de
%%score 1 { ( 2 3 6 ) | ( 4 5 7 ) }
L:1/8
Q:1/4=100
M:3/4
K:Ab
V:1 treble nm="Sang"
V:2 treble nm="Orgel/Harmonium"
V:3 treble 
V:6 treble 
V:4 bass 
V:5 bass 
V:7 bass 
V:1
"^1. KYRIE""^Andante"!p! (A2 G3) F | F6 | (d2 c3) B | B6 | z2 (B2 d2) | d2 c2 z2 | z2 (G2 B2) | %7
w: Ky- * ri-|e,|Ky- * ri-|e|e- *|lei- son,|e- *|
 B2 A2 z2 |!f! e4 c2 | B4 c2 | (A2 F3 =E) | =E4- E z |!mf! c4 c2 | (c2 B2) F2 | A6 | %15
w: lei- son,|Ky- ri-|e e-|lei- * *|son, *|Ky- ri-|e * e-|lei-|
!<(! G4-!>(! G!>)!F!<)! | F6 | z6 | z6 | z6 |!p! z2 d2 c2 | c2 B2 z2 | z2 d2 A2 | A2 _G2 z2 | %24
w: |son.||||Chri- ste,|Chri- ste,|Chri- ste,|Chri- ste|
!mf! z2 (d2 F2) | E2 e2 d2- | d2 (cB c2) | d6 | z2 c2 B2 | B2 A2 G2 | F4- F=E | =E4 z2 | %32
w: e- *|lei- son, e-|* lei- * *|son,|Chri- ste,|Chri- ste e-|lei- * *|son.|
!p! (A2 G3) F | F6 | (d2 c3) B |!<(! B6!<)! |!f! z2 (B2 e2) | e2 d2 z2 | z2 (G2 B2) | B2 A2 d2 | %40
w: Ky- * ri-|e,|Ky- * ri-|e|e- *|lei- son,|e- *|lei- son, e-|
 (c6 | f2) c2 A2 | (A6 |!>(! G6)!>)! | F6- | F6 | z6 |] %47
w: lei-|* son, e-|lei-||son.|||
[M:2/2]"^2. GLORIA"[Q:1/4=180]"^Moderato"!f! A4 B4 | E4 F2 G2 | (A2 B2) (c2 d2) | c4 B4 | e4 c4 | %52
w: Glo- ri-|a in ex-|cel- * sis *|De- o|et in|
 A2 G2 A4 | B2 A4 G2 | G4 A4- | A2 E2 F2 d2 | B8 | A4 z4 | z2 =d2 B2 _d2 | c4 z2 e2- | %60
w: ter- ra pax|ho- mi- ni-|bus, bo-|* nae vo- lun-|ta-|tis.|Lau- da- mus|Te, be-|
 e2 =d2 B B _d2 | c4 z2 c2- | c2 =B2 G2 _B2 | A2 c2 B2 A2 | G6 F2 |!p! =E4 d4- | d3 d c4 | %67
w: * ne- di- ci- mus|Te, ad-|* o- ra- mus|Te, glo- ri- fi-|ca- mus|Te. Gra-|* ti- as|
 d3 A A4 | _c8 | B4 B2 B2 | A6 A2 |!<(! _G6 G2!<)! | F6 z2 |!f! d4 c2 B2 | (A8 | G8) | F4 z2 c2- | %77
w: a- gi- mus|Ti-|bi prop- ter|mag- nam|glo- ri-|am,|glo- ri- a|Tu-||am. Do-|
 c2 =B B (G2 _B2) | A4 z2 c2- | c2 =B2 (G2 _B2) | A4 z2 d2- | d2 c c (A2 _c2) |!p! B4 z2 B2 | %83
w: * mi- ne De- *|us, Ag-|* nus De- *|i, Fi-|* li- us Pat- *|ris. Qui|
!<(! B4 B2 B2 | B3 B B4 | (B2!<)! d4-!>(! d_c)!>)! | B6 z2 |!p! z2 B4 B2 | _c4 A4 | (_G4 _F4) | %90
w: se- des ad|dex- te- ram|Pat- * * *|ris:|mi- se-|re- re|no- *|
 !fermata!E6 z2 |!f! A4 B4 | (E4 F2) G2 | (A2 B2) (c2 d2) | c4 B2 B2 | e4 c2 c2 | A3 G A4 | %97
w: bis.|Quo- ni-|am * Tu|so- * lus *|Sanc- tus, Tu|so- lus Al-|tis- si- mus,|
 (F2 B4) A2 |!f! A4 G2 G2 | c4 c4 | e3 e d4 | z2 d2!<(! d2 d d | (d2 =d2) (e2!<)! =e2) | f4 B4 | %104
w: Je- * su|Chri- ste, cum|Sanc- to|Spi- ri- tu|in glo- ri- a|De- * i *|Pat- ris,|
 z2 B2 B2 B B | B4 e4 | A4 d4 | (G4 c4- | c2 B2 A2 G2) | A8- | A2 z2 z4 | z8 |] %112
w: in glo- ri- a|De- i|Pat- ris,|a- *||men.|||
[K:F][M:4/4]"^3. GRADUALE"[Q:1/4=117]"^Con moto"!p! A4 G2 A2 | c3 c B3 A | A4 z2!>(! c2 | %115
w: Ver- bum su-|per- num pro- di-|ens nec|
 B2 A2 G2!>)! F2 | E3 F G4 |!p! z2 A2 G2 A2 | c3 c B3 A |!f! A4 z2 d2- | d2 =B4 c2 | (d2 =B4) c2 | %122
w: Pat- ris lin- quens|dex- te- ram|a- do- pus|su- um ex- i-|ens, ve-|* nit ad|vi- * ta|
 (E4 D3) C | C4 z4 |!p! z2 B2 B2 A2 | A2 G2 F3 E | E6 z2 | z2 c2!<(! c2 =B2 | =B2 A2 A3 G!<)! | %129
w: ves- * pe-|ram.|Se nas- cens|de- dit so- ci-|um|con- ves- cens|in e- du- li-|
!f! ^F4 z2 e2 | e2 d4 c2 | c2 =B2 c2 A2 | G6 F2 | E6 c2 | =B2 A2 ^G2 A2 | (e4!<(! f4-!<)! | %136
w: um, se|reg- nans, se|reg- nas dat in|prae- mi-|um, se-|mo- ri- ens in|pre- *|
!>(! f4) ^G4!>)! | A6 z2 | z8 |!p! A4 ^G2 A2 | c3 c B3 A | A4 z2 c2 | B2 A2 G2 F2 | E3 F G4 | %144
w: * ti-|um.||O sa- lu-|ta- ris hos- ti-|a, qui|coe- li pan- dis|os- ti- um,|
 A4 ^G2 A2 | c3 c B3 A |!f! A4 z2 f2 | f2 e4 d2 |"^rit." d2 c2 B2 G2 | (F4!>(! G3)!>)! F | F8 | %151
w: bel- la pre-|munt hos- ti- li-|a da|ro- bur, da|ro- bur fer au-|xi- * li-|um.|
 z8 |][K:Ab]"^4. CREDO"[Q:1/4=112]"^Moderato"!mf! F2 F F F2 F2 | F2 F2 z4 | F2 F F F2 F2 | %155
w: |Cre- do in u- num|De- um,|Pat- rem om- ni- po-|
 F2 F2 z2 F2 | F2 F2 F2 F F | F2 F2 z2 F F | F2 F F A3 A | c2 c4 c2 | d2 A2 B3 A | A2 z2 z4 | %162
w: ten- tem, fac-|to- rem coe- li et|ter- rae, vi- si-|bi- li- um om- ni-|um et in|vi- si- bi- li-|um.|
 A2 A2 A2 A2 | A3/2 A/ A2 z4 | z2 !^!A4 A2 | A2 A2 z2 !^!A2- | A3/2 A/ A2 A2 A2 | A2 A2 A3 A | %168
w: Et in u- num|Do- mi- num,|Je- sum|Chri- stum, Fi-|* li- um De- i|u- ni- ge- ni-|
 A2!<(! A A c2 c2!<)! |!f! e2 e2 z2 e e | e2 =d d c2 =B2 | c4 z4 |!p! c4 B2 A2 | (G3 A) G4 | %174
w: tum, et ex Pat- re|na- tum an- te|om- ni- a sae- cu-|la.|De- um de|De- * o,|
 e4 c2 A2 | G3 A G4 | c6 B2 | B2 A A G2 A2 | F8 | E4 z2 E2 | A4 G2 E2 | F3 F F2 F2 | B2 B2 A2 F F | %183
w: lu- men de|lu- mi- ne,|De- um|ve- rum de De- o|ve-|ro, qui|prop- ter nos|ho- mi- nes et|prop- ter nost- ram sa-|
 G4 G2 G2 |!f! e4 e2 e2 | (d2 c2) B2 A2 | (G6 A2) | G6 z2 || %188
w: lu- tem des-|cen- dit, des-|cen- * dit de|coe- *|lis.|
[K:F][Q:1/4=83]"^meno mosso"!p! A2 A A F2 G2 | A3 A B3/2 B/ F2 | G2 G2 z4 | A3/2 A/ A A F2 G2 | %192
w: Et in- car- na- tus|est de Spi- ri- tu|Sanc- to|ex Ma- ri- a vir- gi-|
 A3 A B2 F2 | G3/2 G/ G2 z2 G G | c3 c B3 B | _A3 A G2 G G | F3 F F3 B | B2 E2 z4 |!f! _d4 c4 | %199
w: ne et ho- mo|fac- tus est. Cru- ci-|fi- xus e- ti-|am pro no- bis sub|Pon- ti- o Pi-|la- to,|pas- sus,|
 _e4 =d4 |!p! z2 F F F3 =E | !fermata!E6 z2 ||[K:Ab][Q:1/4=112]"^Tempo I" z2 F3/2 F/ A2 c2 | %203
w: pas- sus|et se- pul- tus|est.|Et as- cen- dit|
 d2 d3/2 d/ d2 _F2 | z2 E2 G2 B B | d2 c2 z2 c c | e2 c c d4 | B2 z2 c2 A A | B2 F F A4 | %209
w: ter- ti- a di- e|se- cun- dum scrip-|tu- ras et as-|cen- dit in coe-|lum, se- det ad|dex- te- ram Pat-|
!p! G2 z2 z2 _G2 | _G3!<(! G G2!<)! _f2 |!>(! e2 _c2!>)! _G2 z G |!<(! _G2 G G G2!<)! _f2 | %213
w: ris, et|i- te- rum ven-|tu- rus est cum|glo- ri- a ju- di-|
!>(! e2!>)! _c2 !^!e4 | =d2 A2 _c3 c | B4 F3 F | G3/2 G/ G2 A2 B2 | G3/2 G/ G2 G3 G | A3 A B2 c2 | %219
w: ca- re vi-|vis et mor- tu-|os. Et in|Spi- ri- tum Sanc- tum|Do- mi- num, qui cum|Pat- re Fi- li-|
 A2 A2 d3 d | d2 c2 (B2 A2) | G2 z E E2 E2 | (E2 e4) d2- | d2 B2 c4 | A2 z2 z4 | z8 | z8 | z8 | %228
w: o- que si- mul|ad- o- ra- *|tur et con- glo-|ri- * *|* fi- ca-|tur.||||
!mf! z2 F2 F2 F2 | F2 F2 z2 F2 | F3 F F2 F2 | F2 F2 F3 F | F2 F2 F3 F | F2 z2 z2 F2 | %234
w: Et u- nam|sanc- tam ca-|tho- li- cam et|a- po- sto- li-|cam ec- cle- si-|am, con-|
!<(! F3/2 F/ F2 A2 A!<)! A | c2 c2 z2 c c | d2 c2 B2 =A2 | (B2 F2) (=G2 A2) | A8 | G6 z2 || %240
w: fi- te- or u- num bap-|tis- ma in re-|mis- si- o- nem|pec- * ca- *|to-|rum,|
[K:F] z2 A2 A2 A2 | z2 A2 A2 A2 | B6 A2 | G6 z2 | z2 F2 F2 F2 | z2 F2 F2 F2 | _G6 F2 | =E6 z2 | %248
w: et vi- tam|ven- tu- ri|sae- cu-|li,|et vi- tam|ven- tu- ri|sae- cu-|li,|
 z2 (c2"^cresc." B2 A2) | G8 | z2 (_e2 d2 c2) | B8 |!f! z2 d2 c2 B2 | A4 B2 A2 | G8- | G8 | F8- | %257
w: a- * *|men,|a- * *|men,|a- * *||||men.|
 F2 z2 z4 | z16 |][M:2/2]"^5. SANCTUS"[Q:1/4=112]"^Moderato"!p! A4 G3 A | B4 A3 B |!<(! c4 d4!<)! | %262
w: ||Sanc- * *|||
!>(! G6!>)! z2 | A4 B3 c | d4 c3 d |!<(! _e4!<)! f4 |!>(! d6 z2!>)! | z2 G4 B2 | B3 A A4 | %269
w: tus,|Sanc- * *|||tus,|Sanc- tus|Do- mi- nus|
 z2 G4 B2 | B3 A A4 |!f! c4 B2 B2 | _e4 d2 z2 | d4 c2 c2 | f4 =e2 z2 | e4 d2 A2 | (c4 =B4) | %277
w: De- us|Sa- ba- oth.|Ple- ni sunt|coe- li,|coe- li et|ter- ra|glo- ri- a|Tu- *|
!ff! c6 c2 | _e6 e2 | _e4 _d4 | c8 | _A4 B4 | c8- | c8 | F8 |] %285
w: a. Ho-|san- na|in ex-|cel-|sis, ho-|san-||na.|
[K:Bb][M:3/4]"^6. BENEDICTUS"[Q:1/4=104]"^Andantino"!p! (F2 G2) A2 | G2 F2 z F | (B2 c2 G2 | %288
w: Be- * ne-|dic- tus, qui|ve- * *|
 B2) A3 A |!<(! B2 B2!<)! B2 |!f! B2 e2 d2- |!>(! d2 c2 B2!>)! | A4 z2 | z2 B2 G2 | G2 F4- | %295
w: * nit in|no- mi- ne|Do- * *|* * mi-|ni,|be- ne-|dic- tus,|
 F2 d2 B2 | B2 A2 z A |!<(! A2 B2 =B2 | c2 ^c2!<)! d2 | (F2 G3) A | A4 A2 | (B2 ^F2 G2 | %302
w: * be- ne-|dic- tus, qui|ve- nit in|no- mi- ne|Do- * mi-|ni, in|no- * *|
 A2) c2 B2 | G4- G F | F4 z2 |!f! z2 e3 B | B2 A2 z2 | z2 (e3 B) |!p! B2 A2 z A | B2 F2 _A2 | %310
w: * mi- ne|Do- * mi-|ni,|be- ne-|dic- tus,|qui *|ve- nit in|no- mi- ne|
 _G4- G G | F6- |!f! F2 z2 F2 |[Q:1/4=111]"^animato" d4 c2 | B4 _A2 | (G4 c2) |!ff! F4 e2 || %317
w: Do- * mi-|ni.|* Ho-|san- na|in ex-|cel- *|sis, ho-|
[M:4/4] d2 f2 e2 c2 | (B4 A3 B) | B8- | B6 z2 | z8 | z8 |] %323
w: san- na in ex-|cel- * *|sis.||||
[K:Ab][M:3/4]"^7. AGNUS DEI"[Q:1/4=100]"^Andante"!p! z2 A2 G2 | G2 F2 z2 | z2 d2 c2 | c2 B2 z2 | %327
w: Ag- nus|De- i,|Ag- nus|De- i,|
 z2 (c2 G2) | G2 A2 F2 | E4 F2 | A2 G2 z2 |!f! (G2 F2) G2 | (A2 G2) F2 | G6 | C4 z2 |!p! z2 c2 B2 | %336
w: qui *|tol- lis pec-|ca- ta|mun- di:|mi- * se-|re- * re|no-|bis.|Ag- nus|
 B2 A2 z2 | z2 B2 A2 | A2 G2 z2 | z2 (e2 =B2) | =B2 c2 _B2 | (A2 =E2) F2 | _E2 =D2 z2 | %343
w: De- i,|Ag- nus|De- i,|qui *|tol- lis pec-|ca- * ta|mun- di:|
!f! (B2 =A2) B2 | (_c2 B2) =A2 | B6 | E4 z2 |!ff! z2 e2 d2 | d2 c2 z2 | z2 d2"^dim." _c2 | %350
w: mi- * se-|re- * re|no-|bis.|Ag- nus|De- i,|Ag- nus|
 _c2 B2 z2 | z2 (=c2 G2) | B2 A2 G2 | (F2 A2) F2 | F2 =E4 |!<(! (c6 | =d4)!<)! =e2 | f6 | %358
w: De- i,|qui *|tol- lis pec-|ca- * ta|mun- di:|do-|* na|no-|
!>(! B6!>)! | (=A6 |!>(! G4)!>)! F2 |"^rit." F6- | F4 z2 |] %363
w: bis|pa-||cem.||
V:2
!p! A2 G3 F | F6 | d2 c3 B | B6- | B2 B2 d2- | d2 c2 A2 | G4 B2- | B2 A2 F2 |!f! G2 B2 A2 | G6 | %10
 A2 F3 =E | =E6 |!p! c6- | c2 B2 F2 | A6 | G6 |!mf! F2 (f2 c2- | c2 BA G2) | (F2 d2 A2- | %19
 A2 _GF E2) |!p! D2 d2 c2 | c2 B4 | A6- | A2 _G4 |!mf! F6 | E2 e2 d2- | d2 cB c2 | d6- | %28
 d2 c2 B2- | B2 A2 G2 | F6 |!p! =E6 | (A2 G3 F) | F6 | (d2 c3 B) | B6- |!mf! B2 B2 e2- | e2 d4 | %38
 G4 B2- | B2 A2 d2 | c6- | c4 A2 |!p! A6 | G6 | F6- | F6- | F6 |][M:2/2]!f! A4 B4 | E4 F2 G2 | %49
 A2 B2 [Ec]2 [Fd]2 | [Ac]4 [GB]4 | e4 c4 | [FA]8 | B2 A4 G2 | G4 [_GA]4- | [GA]4 [FA]2 [Bd]2 | B8 | %57
 A2 E2 e4- | e2 =d2 B2 _d2 | c2 E2 e4- | e2 =d2 B2 _d2 | c2 E2 c4- | c2 =B2 G2 _B2 | A2 c2 B2 A2 | %64
 G6 F2 |!p! [_D=E]4 [Ed-]4 | [Fd]4 [Ec]4 | d4 A4 | _c8 | B4 B4 | A8 | _G8 | F8- |!mf! F8 | A8 | %75
 G8 | F2 C2 c4- | c2 =B2 G2 _B2 | A2 C2 c4- | c2 =B2 G2 _B2 | A2 D2 d4- | d2 c2 A2 _c2 | [AB]8- | %83
 [AB]8- | [AB]8- | [AB]8- | [AB]8 |!p! [_GB]8 | [F_c]4 A4 | _G4 _F4 | !fermata!E6 z2 |!f! A4 B4 | %92
 (E4 F2) G2 | A2 B2 [Ec]2 [Fd]2 | [Ac]4 [GB]4 | e4 c4 | [FA]8 | F2 [FB]4 [FA]2 | [FA]4 [=EG]2 G2 | %99
 c4 [=EGc]4 | [ce]4 [Bd]4- | [Bd-]8 | d2 =d2 e2 =e2 | f4 B4- | [AB-]8 | [GB]4 [Ae]4 | [FA]4 [Gd]4 | %107
 [EG]4 [E_Gc-]4 | c2 B2 A2 G2 | E2 F2 _G4 | [CA]8- | [CEA]8 |][K:F][M:4/4]!p! A4 G2 A2 | c4 B3 A | %114
 A4 c4 | [DB]2 [CA]2 [B,G]2 [=B,F]2 | [CE]3 [DF] [EG]4 | A4 G2 A2 | c4 B3 A |!mf! A6 A2 | %120
 G2 =B4 c2 | d2 =B4 c2 | E4 D3 C |!p! C2 E2 G2 A2 | B6 A2- | A2 G2 F4 | E2 =B4 d2 | c6 =B2- | %128
 B2 A4 G2 |!mf! ^F2 ^c4 e2- | e2 d4 c2- | c2 =B2 c2 A2 | G6 F2 | E6 c2 | =B2 A2 ^G2 A2- | e4 f4- | %136
 f4 ^G4 | A2 e4 d2- | d2 c4 _B2 |!p! A4 ^G2 A2 | c4 _B3 A | A4 c4 | [DB]2 [CA]2 [B,G]2 [=B,F]2 | %143
 [CE]3 [DF] [EG]4 | A4 ^G2 A2 | c3 c B3 A |!f! A6 f2- | f2 e4 d2- | d2 c2 B2 G2 |!p! F4 G3 F | %150
 F8- | [A,F]8 |][K:Ab]!p! F8- | F8- | F8- | F8- | F8- | F8- | F4- [F-A]4 | c8 | d2 A2 B3 A | %161
 (A2 E2 F2 G2) |!mf! A8- | A8- | A8- | A8- | A8- | A8- | A4- [Ac]4 | e8- | %170
 [Ge]2 [F=d]2 [Ec]2 [=D=B]2 |!p! (c4 G2 B2) | A4 =E2 F2- | G8 | e4 c2 A2 | G8 | [Ac]8 | %177
 B2 A2 G2 A2 | F8 | x8 | A4 G4 | F8 | B4 A2 F2 | G8 |!f! [Gce]4 [_Gce]4 | %185
 [FBd]2 [E=Ac]2 [DB]2 [C_A]2 | G6 A2 | [=EG]8 ||[K:F]!pp! [FA]4 F2 [EG]2 | [FA]4 B2 F2 | %190
 [=B,G]2 [CG]2 z4 | A4 F2 [EG]2 | [FA]4 B2 F2 | G2 G6 | c4 B4 | _A4 G4 | F6 [B,FB]2- | %197
 [B,FB]2 [B,E]2 z4 |!f! [=EG_d]4 [_E_Gc]4 | [_G=A_e]4 [F_A=d]4 |!p! z2 F4- [=B,F]2 | %201
 !fermata![CE]6 z2 ||[K:Ab]!mf! F4 A2 c2 | d4 _F4 | E4- [EG]2 [EG-B-]2 | %205
 [_FGBd]2 [EAc]2 z2 [E-Ac]2 | [EBe]2 [EA-c]2 [D-d]4 | B4 [=Gc]2 [FA]2 | B2 F2- [FA]4 | %209
!p! [EG]4 [D_G-]4 | [EG]4 [_F_G-]4 | [EG]4 [DG-]4 | [EG]4 [_F_G-]4 | [EG]4 [F-A-e]4 | %214
 [FA=d]2 A2 [E_G_c]4 |!p! [=DFB]4 [DF]4 | G4 A2 B2 | [B,G]4 G4 | A4 B2 c2 | [CA]4 [Ad-]4 | %220
 [Bd]2 [Ac]2 [DB]2 [CA]2 | [B,EG]4 [G,B,E-]4 | E2 [_Ge]4 [Fd]2- | [Fd]2 [DFB]2 [EGc]4 | %224
!f! ([CA]2 c2 A2 [_CF]2 | E6 D2) | (C2 B4 A2- | A2 _G2 F2 =E2) |!mf! F8- | F8- | F8- | F8- | F8- | %233
 F8- | F4 [F-A]4 | c8 | d2 c2 B2 =A2 | (B2 F2 =G2 A2) | A8 | G8 ||[K:F]!p! [FA]8- | [D-F-A]8 | %242
 B6 A2 | [EG]8 | [DF-]8 | [_D-F]8 | _G6 F2 | =E8 |!mf! z8 | z2 (d2 c2 B2 | A8) | z2 f2 =e2 d2 | %252
 c2 d2 c2 B2 | A4 B2 A2 | G8- | G8 | F8 | F8- | F16 |][M:2/2]!p! A4 G3 A | B4 A3 B | c2 F6 | %262
 E2 D2 C2 B,2 | A4 B3 c | d4 c3 d | _e4 c4- | c2 BA G2 F2 | E4 F2 G2 | B4 A4 | G4 F2 G2 | B4 A4 | %271
!f! F8- | F8- | G8- | G8- | A8 | c4 =B4 | c8 |!ff! [_Ac]8 | [GB]8 | _A4 _G4 | [F_A]4 [FB-]4 | %282
 [C=EB]4 [F-A]4 | F4 E4 | [A,F]8 |][K:Bb][M:3/4]!p! (F2 G2 A2 | G2 F4) | (B2 c2 G2 | B2 A2) A2 | %289
 B6- | B2 e2 d2- | d2 c2 B2 | A6 | B4 G2- | G2 F4- | F2 d2 B2- | B2 A4- | A2 B2 =B2 | c2 ^c2 d2 | %299
 F2 G3 A | A6 | B2 ^F2 G2 | A2 c2 B2 | G6 | F2 A2 c2 |!f! e4 B2- | B2 A2 c2 | e4 B2- |!p! B2 A4 | %309
 B4 _A2 | _G6 | F6- | F6 |!f! d4 c2 | B4 _A2 | G4 c2 | F6- ||[M:4/4] F4 E2 c2 | B4 A3 B | B8- | %320
 B8- | B8- | B8 |][K:Ab][M:3/4]!pp! A4 G2- | G2 F4- | F2 d2 c2- | c2 B4- | B2 c2 G2 | G2 A2 F2 | %329
 E4 F2 | A2 G4 |!mf! G2 F2 G2 | A2 G2 F2 | G6 | C2 E2 G2 |!p! c4 B2- | B2 A4- | A2 B2 A2- | %338
 A2 G4- | G4 =B2- | B2 c2 _B2 | A2 =E2 F2 | _E2 =D4 |!f! B2 =A2 B2 | (_c2 B2) =A2 | B6 | E6 | %347
!ff! e4 d2- | d2 c4- |!mf! c2 d2 _c2- | c2 B4- |!p! B2 =c2 G2 | B2 A2 G2 | F2 A2 F2- | F2 =E4 | %355
!f! c6- | c2 B4- | B2 ^G2 =A2 | B6 |!p! (=A6 | G4 F2) | F6- | F4 z2 |] %363
V:3
 F2 =E2 D2 | C2 B,2 A,2 | F2 E4 | D2 E2 F2 | G4 _G2 | _F2 E2 =D2 | E4 D2 | C4 _C2 | B,2 D2 =D2 | %9
 E2 _D2 C2- | C4 =B,2 | C6- | C2 F2 E2 | D6 | F6- | F4 =E2 | F6 | =E6 | F6 | D4 C2 | D6- | D4 _G2 | %22
 F6- | F2 E4 | D6 | E6- | E2 A2 _G2 | F6 | =E4 G2 | F4 C2- | C2 B,A, B,2 | C6 | F2 =E2 D2 | %33
 C2 B,2 A,2 | F2 E4 | D2 E2 F2 | G4 _G2- | G2 F4 | =E4 G2- | G2 F2 F2- | F2 =E2 G2 | F4 F2 | F6 | %43
 =E6 | F2 C2 D2- | D2 C2 D2 | C6 |][M:2/2] x8 | E8- | E4 A4 | E8 | A6 G2 | E4 D4 | D4 =D4 | %54
 =E4 _E2 D2 | C4 D2 F2 | E6 D2 | C4 x2 E2 | F4 G4 | A4 x2 E2 | F4 G4 | A4 x2 C2 | =D4 D4 | F8- | %64
 F2 E2 =D4 | x8 | x8 | D6 =D2 | E4 F4 | B,4 E4- | E4 D4- | D4 C4- | C8 | B,2 d2 c2 B2 | F8 | =E8 | %76
 x4 x2 C2 | =D4 =E4 | F4 x2 C2 | =D4 =E4 | F4 x2 _F2 | E4 =F4 | F6 _F2 | E6 =D2 | _D6 =D2 | %85
 E6 =E2 | F6 F2 | D8- | D4 D4- | D6 _C2 | B,6 x2 | x8 | E8- | E4 A4 | E8 | A6 G2 | E4 D4- | %97
 D4 =D4 | C6 x2 | x8 | F8 | _G8 | [=GB]8 | [FA]8 | E4 =D4 | x8 | x8 | x8 | [=DF]4 [_DE]4 | [CA]8- | %110
 G4 [DF]4 | x8 |][K:F][M:4/4] C8- | C2 F4 E2 | C2 F2 E2 _E2 | x8 | x8 | F2 C6- | C2 F4 E2- | %119
 E2 A,2 D2 F2- | F2 G2 F2 E2 | F4 E4 | C6 =B,2 | C8 | B,4 _E4 | D8 | E8- | E4 F4 | E8 | ^F8- | F8 | %131
 =F4 E4- | E2 ^C2 D4- | D4 =C4 | D4 ^D4 | A2 c2 =B2 A2 | ^G2 =B4 c2 | A8- | A4 F4 | E8 | C2 F4 E2 | %141
 C2 F2 E2 _E2 | x8 | x8 | F2 C6- | C2 F4 E2- | E2 A,2 D2 A2 | ^G4 F4- | F2 E2 D4 | C2 F4 E2 | %150
 F2 D2 C2 B,2 | x8 |][K:Ab] x8 | x4 E4 | D4 [CE]4 | D4 C4 | =B,4 C2 DC | =B,4 _B,4 | C8 | %159
 F2 =E2 _E4 | D2 C2 D4 | C4 D2 B,2 | x8 | x4 G4 | F4 =E4 | F4 _E4 | =D4 E2 _FE | =D4 _D4- | D4 C4 | %169
 G4 ^F4 | x8 | C8- | C8 | F6 _E2- | E6 FE | [=DF]4 E4- | E6 F2 | G2 =D2 E4 | E4 =D4 | E8- | E8- | %181
 E8- | E8- | E8 | x8 | x4 F4 | [B,F]8 | C6 B,2 ||[K:F] A,6 C2 | C4 B,4 | x8 | A,6 C2- | C4 B,4 | %193
 =B,2 C6- | C8- | C8- | C2 =A,2 B,2 x2 | x8 | x8 | x8 | x8 | x8 ||[K:Ab] x8 | x8 | x8 | x8 | %206
 x4 A2 =A2 | D4 C4 | x8 | x8 | x8 | x8 | x8 | x8 | x8 | x8 | E6 F2- | F2 E2 =E4 | F6 G2 | %219
 G2 F2 F4 | _F2 E2 =F4 | x8 | x8 | x8 | x8 | B,8 | C4 D4- | D4 C4 | x8 | F4 E4 | D4 [CE]4 | D4 C4 | %232
 =B,4 C2 _DC | =B,4 _B,4 | C8 | F2 =E2 _E4 | D6 E2 | D4 =D4 | F8 | =E8 ||[K:F] x8 | x8 | [D-F]8 | %243
 D2 G,2 C2 B,2 | x8 | x8 | D8- | D2 _D2 C4- | C8 | D8 | _E8 | F8 | G2 B2 A2 G2- | G4 F4 | F8 | E8 | %256
 A,6 C2- | C2 =B,2 F,2 _B,2 | A,16 |][M:2/2] C2 F4 E2 | F2 G4 F2 | C4 D2 B,2- | B,2 B,2 A,2 G,2 | %263
 A,2 A4 G2 | F2 B4 A2 | B2 G2 F2 _E2 | D8 | C4 D2 E2- | E4 F2 CD | E4 D2 E2- | E4 F2 CD | _E4 D4 | %272
 A,4 B,2 _A,2 | F4 =E4 | =B,4 C2 _B,2 | G4 F4 | E4 D2 EF | E8 | _E8- | E4 _D4 | [C_A]8 | _D8 | x8 | %283
 [B,G]8 | x8 |][K:Bb][M:3/4] D2 E2 C2 | ^C2 D2 =C2 | D2 E2 =E2 | C4 F2- | F6 | E4 F2 | E4 =E2 | %292
 A,2 D2 C2 | B,4 D2 | C4 E2 | D4 F2 | =E4 G2 | F6 | F6 | F2 =E4 | _E2 D2 C2 | B,2 E2 D2 | =F6- | %303
 F2 D2 =E2 | F6 | E6 | E6- | E6- | E2 F2 _G2 | F6- | F2 E2 _D2 | C6- | C2 D2 E2 | D6- | D2 G2 F2- | %315
 F2 E4- | E6 ||[M:4/4] D4 C2 G2 | F8 | [DF]4 [EG]4 | [F_A]4 [EG]4- | [EG]4 [DF]2 [CE]2 | [DF]8 |] %323
[K:Ab][M:3/4] C6 | A,6 | D4 E2 | D4 =D2 | E4 _D2 | C4 _C2 | B,6- | B,4 =B,2 | C6- | C6- | %333
 C2 =A,2 =B,2 | C6- | C6 | C6 | =B,4 C2 | =D2 E2 D2 | C4 F2 | G4 _D2 | C6 | C2 B,4 | E6- | E6 | %345
 =D6 | E6- | E4 G2 | F4 E2 | D6- | D6 | C6- | C6- | C4 =B,2 | C6- | C2 F2 =E2 | =D4 =E2 | F6- | %358
 F2 =E2 =D2 | C6 | =E6 | F2 C2 =D2 | C4 x2 |] %363
V:4
"_Ped." C2 B,4 | A,2 G,2 F,2- | F,2 _G,2 =A,2 | B,2 C2 D2 | E4 B,2 | =G,2 A,2 F,2 | E,4 =E,2 | %7
 F,4 =D,2 | E,6- | E,4 =E,2 | F,2 D,4 | C,6 | F,6- | F,4 A,2- | A,2 =B,2 C2 | D2 G,2 B,2 | A,6 | %17
 D3 C B,2 | A,4 _C2 | B,4 _G,2 | F,4 A,2 | _G,4 B,2 | D4 _C2 | B,4 =C2 | F,4 A,2 | B,6 | A,6- | %27
 A,2 A,2 B,2 | C6- | C4 G,2 | A,2 F,2 G,2 | G,6 | C2 B,4 | A,2 G,2 F,2- | F,2 _G,2 =A,2 | %35
 B,2 C2 D2 | E4 C2 | =A,2 B,2 =B,2 | C6- | C4 B,A, | G,4 B,2 | A,4- A,=B, | C2 F,2 A,2 | %43
 D2 C2 B,2 | A,4 B,2 | A,4 [G,B,]2 | A,6 |][M:2/2] A,4 B,4 | E,8- | E,8 | E,,4 E,2 D,2 | C,4 A,,4 | %52
 D,6 C,2 | B,,4 =B,,4 | C,6 B,,2 | A,,4 D,2 B,,2 | E,4 E,,4 | A,,4 z2 C2 | B,4 E,4 | A,4 z2 C2 | %60
 B,4 =E,4 | F,4 z2 A,2 | G,4 C,4 | F,4 G,2 A,2 | B,6 A,2 | G,8 | A,8 | A,8- | A,8 | =G,8 | %70
 _G,4 F,4- | F,4 E,4- | E,4 F,2 E,2 | D,4 E,2 F,2- | F,2 =E,2 F,2 A,2 | C6 B,2 | A,4 x4 | G,4 C,4 | %78
 F,4 z2 A,2 | G,4 C,4 | D,4 z2 =G,2 | A,4 D,4 | z2 =A,2 B,4- | B,2 =A,2 B,4- | B,2 =A,2 B,4- | %85
 B,2 =A,2 B,4- | B,2 =A,2 B,4- | B,8 | A,4 F,4 | _G,4 A,4 | !fermata![E,=G,]6 z2 | A,4 B,4 | E,8- | %93
 E,8 | E,,4 E,2 D,2 | C,4 A,,4 | D,,4 D,2 C,2 | B,,4 =B,,4 | C,6 G,2 | C4 B,4 | =A,4 B,2 _A,2 | %101
 _G,4 _F,4 | E,2 =D,2 _D,2 C,2 | D,6 =D,2 | E,4 F,4 | E2 _D4 C2 | D2 C4 B,2 | C2 B,4 =A,2 | %108
 _A,4 B,4 | A,6 =D,2 | E,2 =E,2 F,2 =G,2 | A,8 |][K:F][M:4/4] F,4 E,2 F,2 | A,4 G,2 C,2 | F,8- | %115
 F,6 G,2- | G,2 B,4 A,G, | F,4 E,2 F,2 | A,4 G,4 | F,6 C2 | =B,2 D4 C2 | =B,2 D2 C4 | z2 G,2 F,4 | %123
 E,6 _E,2 | D,4 ^F,4 | G,4 A,4 | =B,4 E,4 | A,4 ^G,4 | A,4 =B,4 | ^C4 ^F,4 | =B,4 A,4 | D4 C4- | %132
 C2 ^A,2 =B,4- | B,2 E,2 A,4- | A,4 =B,4 | C2 E2 D2 C2 | =B,2 D4 E2 | E4 F4 | E4 D4 | C4 =B,2 C2 | %140
 A,4 =G,2 C,2 | F,8- | F,6 G,2- | G,2 _B,4 A,G, | F,4 E,2 F,2 | A,4 G,4 | F,6 C2 | =B,8 | %148
 C4 G,2 B,2 | A,4 B,4 | A,2 B,2 A,2 D,2 | C,8 |][K:Ab] F,8- | F,8- | F,8- | F,8- | F,8- | F,8 | %158
 =A,4 _A,4 | G,6 _G,2 | F,2 A,4 G,2 | A,8 | A,8- | A,8- | A,8- | A,8- | A,8- | A,8- | A,8- | %169
 [C,-A,]8 | G,6 F,2 | E,4 =E,4 | F,4 G,2 A,2 | =B,2 G,2 C4- | C2 G,2 A,2 F,2 | =B,2 G,2 C4 | %176
 A,,2 B,,2 C,2 =D,2 | x2 F,2 G,2 C2- | C2 F,2 B,2 A,2 | [E,-G,]8 | E,8- | E,2 =D,2 E,4- | E,8- | %183
 E,2 =D,2 E,4- | [C,E,]4 =A,,4 | B,,2 C,2 D,4- | D,4 G,,4 | C,8- ||[K:F] [F,,C,]4 D,2 C,2 | F,8- | %190
 F,2 E,2 z4 | F,6 x2 | F,8- | F,2 E,6- | E,2 F,4 E,2- | E,2 x6 | =D,6 _D,2 | C,2- [C,G,]2 z4 | %198
 z2 B,4 =A,2 | z2 C4 =B,2 | z2 F,2- [_D,F,]4 | !fermata![C,G,]6 z2 ||[K:Ab] F,4 A,2 C2 | D4 _F,4 | %204
 E,6 E,2 | A,,2 A,2 z2 A,2 | G,2 A,2 F,4 | _G,2 F,2 =E,2 F,2 | _D,6 =D,2 | B,8 | _C4 B,4 | %211
 _C6 B,2 | _C2 _G,2 A,2 B,2 | [_C,_C]4 z2 C2 | B,6 =A,2 | B,2 B,,2 z2 B,2- | B,4 C,2 x2 | %217
 E,2 E,,2 z2 C2- | C4 x4 | F,2 F,,2 z2 F,2 | G,2 A,2 D,2 =D,2 | E,6 _D,2 | A,4 =A,2 B,2- | %223
 B,2 x4 E,,2 | z4 z2 =D,2 | E,4 F,2 G,2- | G,4 A,4 | B,4 A,2 =G,2 | F,8- | F,8- | F,8- | F,8- | %232
 F,8- | F,8 | =A,4 _A,4 | G,4 _G,2 F,2- | F,6 _G,2 | F,2 A,2 =G,2 F,2 | C8- | C2 (=B,2 C2 _B,2) || %240
[K:F] [F,A,-]8 | [D,A,]8 | G,2 G,,2 A,,2 B,,2 | C,6 ^C,2 | [D,A,]8 | [B,,B,]8- | B,8- | %247
 B,2 B,2 =A,2 G,2 | F,8- | F,8- | F,8 | B,8- | B,2 G,2 C4 | ^C2 A,2 D4 | B,4 C2 D2 | %255
 C2 G,2 A,2 B,2 | z2 F,2 E,2 _E,2 | D,4 _D,4 | C,16 |][M:2/2] F,4 C,4 | D,2 E,2 F,2 D,2 | %261
 A,,4 B,,4 | C,4 D,2 E,2 | F,4 G,3 A, | B,4 F,2 ^F,2 | G,4 A,4 | B,4 B,,2 =B,,2 |"_Ped." C,8- | %268
 C,2 C,2 F,4 | C,8- | C,2 C,2 F,4 | F,8 | F,8 | G,8- | G,8 | A,8 | G,4 F,2 E,D, | C,8 | _A,,8 | %279
 _E,,4 =E,,4 | F,,4 _E,,4 | _D,,4 =G,,4 | [C,,C,]8- | [C,,C,-]8 | [F,,C,]8 |][K:Bb][M:3/4] B,6- | %286
 B,4 A,2 | G,2 C,2 C2 | F,4 [E,C]2 | B,2 A,2 _A,2 | G,4 _A,2 | G,6 | [D,^F,]6 | G,4 B,2 | A,4 C2 | %295
 B,4 D2 | ^C4 =E2 | D4 ^G,2 | A,2 A,,2 B,,2 | A,2 C2 B,2 | A,2 D,4- | D,2 C2 B,2 | F,2 A,2 D2 | %303
 B,6 | A,6 | B,6 | C4 A,2 | B,6 | C6 | F,2 _D2 C2 | B,6 | =A,6- | A,2 B,2 C2 | z2 F,2 ^F,2 | %314
 G,2 E,2 D,2 | E,4 G,2 | C2 B,2 A,2 ||[M:4/4] B,2 _A,2 G,2 C2- | C2 D2 E4 | z2 B,2 G,2 E,2- | %320
 E,2 D,2 E,2 G,2 | B,2 A,2 B,4- | B,8 |][K:Ab][M:3/4] E,6 | D,6 | F,4 =A,2 | B,4 _A,2 | =G,4 B,2 | %328
 A,6- | A,2 G,2 =D,2 | E,6- | E,6 | =D,6- | D,6 | E,6 | E,4 =E,2 | F,6- | F,6- | F,2 G,2 F,2 | %339
 E,4 A,2 | G,6 | A,2 B,2 A,2 | _G,2 F,4 | z6 | z6 | z2 F,2 A,2- | A,2 G,4 | G,4 B,2 | A,4 _G,2 | %349
 F,6 | _G,6 | =G,4 B,2 | A,6- | A,2 F,4 | G,6 | F,6- | F,2 B,2 G,2 | F,6 | G,6- | G,2 =E,2 F,2 | %360
 B,6 | =A,4 B,2 | =A,4 z2 |] %363
V:5
 F,6- | F,6 | B,,6- | B,,4 x2 | x6 | x6 | x6 | x6 | x6 | x6 | x6 | x2 C,2 B,,2 | A,,4 =A,,2 | %13
 B,,4 =B,,2 | C,2 D,2 C,2 | B,,4 C,2 | F,6- | F,6- | F,4 D,2 | _G,,4 A,,2 | D,6- | D,6- | D,6 | %23
 E,4 A,,2 | B,,4 F,,2 | _G,,4 =G,,2 | A,,6 | D,6 | x2 x2 =E,2 | F,4 _E,2 | (D,6 | C,2) B,,2 G,,2 | %32
 F,,6- | F,,6 | B,,6- | B,,4 x2 | x6 | x6 | x2 x2 =E,2 | F,4 B,,2 | C,6- | C,2 A,,2 F,,2 | C,,6- | %43
 C,,6 | F,,6- | F,,6- | F,,6 |][M:2/2] x8 | E,4 D,4 | C,4 B,,4 | x8 | x8 | x8 | x8 | x8 | x8 | x8 | %57
 x8 | x8 | x8 | x8 | x8 | x8 | x8 | B,4 B,,4 | B,,6 __B,,2 | A,,4 A,2 G,2 | F,4 _F,4 | E,4 =D,4 | %69
 E,4 D,4 | C,4 D,4 | B,,4 C,4 | =A,,8 | B,,4 C,2 D,2 | C,8- | C,4 C,,4 | F,,4 x2 A,2 | x8 | x8 | %79
 x8 | x8 | x8 | =D,8 | E,8 | _F,8 | E,8 | =D,8 | _D,8- | D,4 _C,4 | B,,4 D,4 | x8 | x8 | E,4 D,4 | %93
 C,4 A,,4 | x8 | x8 | x8 | x8 | x8 | x8 | x8 | x8 | x8 | x8 | x8 | E,8- | E,8- | E,8- | E,4 E,,4 | %109
 A,,8- | A,,4 D,4 | A,,8 |][K:F][M:4/4] x8 | x8 | x4 A,,4 | B,,2 C,2 D,4 | C,6 x2 | x8 | x4 ^C,4 | %119
 D,8 | G,,8- | G,,2 ^G,,2 A,,2 ^F,,2 | G,,8 | C,8 | G,,4 C,4 | B,,4 A,,4 | ^G,,8 | A,,4 D,4 | %128
 C,4 =B,,4 | ^A,,8 | =B,,4 D,4 | ^G,,4 A,,2 ^F,,2 | G,,8 | ^G,,4 A,,4 | F,,6 F,,2 | E,,8 | E,8 | %137
 A,,6 x2 | x8 | x8 | x8 | x4 A,,4 | B,,2 C,2 D,4 | C,6 x2 | x8 | x4 ^C,4 | D,8 | E,4 ^G,,4 | %148
 A,,4 _B,,4 | C,4 C,,4 | F,,8- | F,,8 |][K:Ab] F,4 E,4 | D,4 C,4 | B,,4 =A,,4 | B,,4 _A,,4 | %156
 G,,4 A,,4 | G,,4 D,4 | C,8 | C,6 =A,,2 | B,,2 F,2 E,4 | A,,4 x4 | A,4 G,4 | F,4 E,4 | D,4 C,4 | %165
 D,4 _C,4 | B,,4 _C,4 | B,,4 _F,4 | E,8 | C,4 A,,4 | G,,8 | C,8- | C,8 | C,8- | C,8- | C,6 _B,,2 | %176
 x8 | E,2 =B,,2 C,2 F,,2 | B,,8 | E,4 D,4 | C,4 B,,4 | A,,8 | D,4 C,4 | B,,6 =B,,2 | x8 | x8 | x8 | %187
 x8 ||[K:F] x8 | x4 D,2 _D,2- | D,2 C,2 x4 | F,,4 D,2 C,2 | F,4 D,2 _D,2- | D,2 C,4 B,,2 | %194
 _A,,4 G,,4 | F,,2 F,4 _E,2 | x8 | x8 | x8 | x8 | x8 | x8 ||[K:Ab] x8 | x8 | x8 | x8 | x8 | x8 | %208
 x8 | E,4 _F,4 | E,4 D,4 | _C,4 _F,4 | E,4 D,4 | x8 | x8 | x8 | G,2 E,2 x2 =D,2 | x8 | %218
 A,2 F,2 =D,2 =E,2 | x8 | x8 | x8 | C,4 D,4 | E,6 x2 | A,,8- | A,,2 G,,2 F,,2 E,,2 | =E,,4 F,,4 | %227
 B,,4 C,4 | F,4 E,4 | D,4 C,4 | B,,4 =A,,4 | B,,4 _A,,4 | G,,4 A,,4 | G,,4 D,4 | C,8- | %235
 C,4 B,,2 =A,,2 | B,,8- | B,,4 =B,,4 | (C,2 =B,,2 C,2 B,,2 | C,8) ||[K:F] x8 | x8 | x8 | x8 | x8 | %245
 x8 | B,,2 _G,,2 _A,,2 B,,2 | C,6 B,,2 | A,,8 | B,,8 | C,8 | D,8 | E,8- | E,4 D,4- | %254
 D,2 G,,2 A,,2 B,,2 | C,4 C,,4 | F,,8- | F,,8- | F,,16 |][M:2/2] x8 | x8 | x8 | x8 | x8 | x8 | x8 | %266
 x8 | x4 C,,4 | F,,6 A,,2 | C,4 C,,4 | F,,8 | A,,4 B,,4 | C,4 D,2 C,2 | =B,,4 C,4 | D,4 E,2 D,2 | %275
 ^C,4 D,2 F,2 | G,2 G,,6 | C,4 B,,4 | x8 | x8 | x8 | x8 | x8 | x8 | x8 |][K:Bb][M:3/4] x6 | x6 | %287
 x6 | x6 | D,6 | E,4 =B,,2 | C,4 ^C,2 | x6 | x6 | x6 | x6 | x6 | x6 | x6 | C,6 | ^F,,6 | %301
 G,,2 A,,2 B,,2 | C,6- | C,6 | F,6 | _G,6 | F,6 | _G,6 | F,4 E,2 | _D,4 =D,2 | E,6- | %311
 E,2 =E,2 F,2 | _E,2 D,2 C,2 | B,,6 | B,,4 =B,,2 | C,4 _B,,2 | A,,2 G,,2 F,,2 || %317
[M:4/4] B,,2 =B,,2 C,2 E,,2 | F,,8 | B,,8- | B,,8- | B,,8- | B,,8 |][K:Ab][M:3/4] A,,6 | D,4 C,2 | %325
 B,,4 F,2 | _G,4 _F,2 | E,4 =E,2 | F,4 A,,2 | B,,6 | E,,4 G,,2 | C,2 A,,2 G,,2 | F,,2 G,,2 A,,2 | %333
 G,,6 | C,4 B,,2 | A,,4 G,,2 | F,,2 F,2 _E,2 | D,4 C,2 | =B,,6 | C,4 =D,2 | E,4 =E,2 | F,4 A,,2 | %342
 =A,,2 B,,2 _A,,2 | _G,,2 F,,2 G,,2 | A,,2 B,,2 _C,2 | B,,6 | E,4 =B,,2 | C,4 =E,,2 | F,,4 =A,,2 | %349
 B,,4 D,2 | _G,4 F,2 | =E,6 | F,4 E,2 | =D,4 _D,2 | C,4 B,,2 | =A,,6 | B,,4 ^C,2 | =D,6 | G,,6 | %359
 C,6 | C,,6 | F,,6- | F,,4 x2 |] %363
V:6
 x6 | x6 | x6 | x6 | x6 | x6 | x6 | x6 | x6 | x6 | x6 | x6 | x6 | x6 | x6 | x6 | x6 | x6 | x6 | %19
 x6 | x6 | x6 | x6 | x6 | x6 | x6 | x6 | x6 | x6 | x6 | x6 | x6 | x6 | x6 | x6 | x6 | x6 | x6 | %38
 x6 | x6 | x6 | x6 | x6 | x6 | x6 | x6 | x6 |][M:2/2] x8 | x8 | x8 | x8 | E8 | x8 | F8 | x8 | x8 | %56
 A4 G4 | x8 | x8 | x8 | x8 | x8 | x8 | x8 | x8 | x8 | x8 | x8 | x8 | x8 | x8 | x8 | x8 | x8 | x8 | %75
 x8 | x8 | x8 | x8 | x8 | x8 | x8 | x8 | x8 | x8 | x8 | x8 | x8 | x8 | x8 | x8 | x8 | x8 | x8 | %94
 x8 | E8- | x8 | x8 | x8 | x8 | x8 | x8 | x8 | x8 | x8 | x8 | x8 | x8 | x8 | x8 | x8 | x8 |] %112
[K:F][M:4/4] x8 | x8 | x8 | x8 | x8 | x8 | x8 | x8 | x8 | x8 | x8 | x8 | x8 | x8 | x8 | x8 | x8 | %129
 x8 | x8 | x8 | x8 | x8 | x8 | x8 | x8 | x8 | x8 | x8 | x8 | x8 | x8 | x8 | x8 | x8 | x8 | x8 | %148
 x8 | x8 | x8 | x8 |][K:Ab] x8 | x8 | x8 | x8 | x8 | x8 | x8 | x8 | x8 | x8 | x8 | x8 | x8 | x8 | %166
 x8 | x8 | x8 | x8 | x8 | x8 | x8 | x8 | x8 | x8 | x8 | x8 | x8 | x8 | x8 | x8 | x8 | x8 | x8 | %185
 x8 | x8 | x8 ||[K:F] x8 | x8 | x8 | x8 | x8 | x8 | x8 | x8 | x8 | x8 | x8 | x8 | x8 | x8 || %202
[K:Ab] x8 | x8 | x8 | x8 | x8 | x8 | x8 | x8 | x8 | x8 | x8 | x8 | x8 | x8 | x8 | x8 | x8 | x8 | %220
 x8 | x8 | x8 | x8 | x8 | x8 | x8 | x8 | x8 | x8 | x8 | x8 | x8 | x8 | x8 | x8 | x8 | x8 | x8 | %239
 x8 ||[K:F] x8 | x8 | x8 | x8 | x8 | x8 | x8 | x8 | x8 | x8 | x8 | x8 | x8 | x8 | x8 | x8 | x8 | %257
 x8 | x16 |][M:2/2] x8 | x8 | x8 | x8 | x8 | x8 | x8 | x8 | x8 | x8 | x8 | x8 | x8 | x8 | x8 | x8 | %275
 x8 | x8 | x8 | x8 | x8 | x8 | x8 | x8 | x8 | x8 |][K:Bb][M:3/4] x6 | x6 | x6 | x6 | x6 | x6 | x6 | %292
 x6 | x6 | x6 | x6 | x6 | x6 | x6 | x6 | x6 | x6 | x6 | x6 | x6 | x6 | x6 | x6 | x6 | x6 | x6 | %311
 x6 | x6 | x6 | x6 | x6 | x6 ||[M:4/4] x8 | x8 | x8 | x8 | x8 | x8 |][K:Ab][M:3/4] x6 | x6 | x6 | %326
 x6 | x6 | x6 | x6 | x6 | x6 | x6 | x6 | x6 | x6 | x6 | x6 | x6 | x6 | x6 | x6 | x6 | x6 | x6 | %345
 x6 | x6 | x6 | x6 | x6 | x6 | x6 | x6 | x6 | x6 | x6 | x6 | x6 | x6 | x6 | x6 | x6 | x6 |] %363
V:7
 x6 | x6 | x6 | x6 | x6 | x6 | x6 | x6 | x6 | x6 | x6 | x6 | x6 | x6 | x6 | x6 | x6 | x6 | x6 | %19
 x6 | x6 | x6 | x6 | x6 | x6 | x6 | x6 | x6 | x6 | x6 | x6 | x6 | x6 | x6 | x6 | x6 | x6 | x6 | %38
 x6 | x6 | x6 | x6 | x6 | x6 | x6 | x6 | x6 |][M:2/2] x8 | x8 | x8 | x8 | x8 | x8 | x8 | x8 | x8 | %56
 x8 | x8 | x8 | x8 | x8 | x8 | x8 | x8 | x8 | x8 | x8 | x8 | x8 | x8 | x8 | x8 | x8 | x8 | x8 | %75
 x8 | x8 | x8 | x8 | x8 | x8 | x8 | x8 | x8 | x8 | x8 | x8 | x8 | x8 | x8 | x8 | x8 | x8 | x8 | %94
 x8 | x8 | x8 | x8 | x8 | x8 | x8 | x8 | x8 | x8 | x8 | x8 | x8 | x8 | x8 | x8 | x8 | x8 |] %112
[K:F][M:4/4] x8 | x8 | x8 | x8 | x8 | x8 | x8 | x8 | x8 | x8 | x8 | x8 | x8 | x8 | x8 | x8 | x8 | %129
 x8 | x8 | x8 | x8 | x8 | x8 | x8 | x8 | x8 | x8 | x8 | x8 | x8 | x8 | x8 | x8 | x8 | x8 | x8 | %148
 x8 | x8 | x8 | x8 |][K:Ab] x8 | x8 | x8 | x8 | x8 | x8 | x8 | x8 | x8 | x8 | x8 | x8 | x8 | x8 | %166
 x8 | x8 | x8 | x8 | C,2 =B,,2 C,2 x2 | x8 | x8 | x8 | x8 | x8 | x8 | x8 | x8 | x8 | x8 | x8 | x8 | %183
 x8 | x8 | x8 | x8 | x8 ||[K:F] x8 | x8 | x8 | x8 | x8 | x8 | x8 | x8 | x8 | x8 | x8 | x8 | x8 | %201
 x8 ||[K:Ab] x8 | x8 | x8 | x8 | x8 | x8 | x8 | x8 | x8 | x8 | x8 | x8 | x8 | x8 | x8 | x8 | x8 | %219
 x8 | x8 | x8 | x8 | x8 | x8 | x8 | x8 | x8 | x8 | x8 | x8 | x8 | x8 | x8 | x8 | x8 | x8 | x8 | %238
 x8 | x8 ||[K:F] x8 | x8 | x8 | x8 | x8 | x8 | x8 | x8 | x8 | x8 | x8 | x8 | x8 | x8 | x8 | x8 | %256
 x8 | x8 | x16 |][M:2/2] x8 | x8 | x8 | x8 | x8 | x8 | x8 | x8 | x8 | x8 | x8 | x8 | x8 | x8 | x8 | %274
 x8 | x8 | x8 | x8 | x8 | x8 | x8 | x8 | x8 | x8 | x8 |][K:Bb][M:3/4] x6 | x6 | x6 | x6 | x6 | x6 | %291
 x6 | x6 | x6 | x6 | x6 | x6 | x6 | x6 | x6 | x6 | x6 | x6 | x6 | x6 | x6 | x6 | x6 | x6 | x6 | %310
 x6 | x6 | x6 | x6 | x6 | x6 | x6 ||[M:4/4] x8 | x8 | x8 | x8 | x8 | x8 |][K:Ab][M:3/4] x6 | x6 | %325
 x6 | x6 | x6 | x6 | x6 | x6 | x6 | x6 | x6 | x6 | x6 | x6 | x6 | x6 | x6 | x6 | x6 | x6 | x6 | %344
 x6 | x6 | x6 | x6 | x6 | x6 | x6 | x6 | x6 | x6 | x6 | x6 | x6 | x6 | x6 | x6 | x6 | x6 | x6 |] %363

